html/assets/images/dynamic/icon9.svg

<svg width="147" height="73" viewBox="0 0 147 73" fill="none" xmlns="http://www.w3.org/2000/svg">
<g id="Logo Card Wrapper">
<path id="Logo" d="M86.784 25.1241H83.3359V44.4085C86.4695 44.5163 89.59 44.6744 92.6978 44.8816V41.4841C90.7319 41.353 88.7608 41.2418 86.784 41.1498V25.1241ZM114.187 25.1261H110.399L107.902 30.9131L105.659 25.1261H101.928L105.938 35.4667L101.561 45.6112C102.772 45.7293 103.979 45.8553 105.185 45.9884L107.731 40.0901L110.251 46.5922C111.564 46.761 112.874 46.9371 114.181 47.1237L114.187 47.1214L109.695 35.5366L114.187 25.1261ZM71.4995 44.24L74.9478 44.2392V36.3949H79.6221V32.9973H74.9478V28.5544H81.1255V25.1263H71.4995V44.24ZM58.6231 28.5541H62.232V44.442C63.3794 44.3986 64.5292 44.3629 65.6801 44.3328V28.5541H69.2889V25.1261H58.6231V28.5541ZM46.8345 45.4294C50.0126 45.1406 53.2054 44.9026 56.4126 44.7179V41.32C54.3635 41.4384 52.3201 41.5786 50.2827 41.7389V36.5951C51.6195 36.5818 53.3798 36.541 54.9393 36.5604V33.1625C53.6934 33.1595 51.691 33.1799 50.2827 33.198V28.5544H56.4126V25.1263H46.8345V45.4294ZM40.0706 37.5748L35.5796 25.1261H32.3025V47.1241C33.4497 46.9608 34.599 46.8045 35.7506 46.6545V34.692L39.7439 46.1633C40.9999 46.0177 42.2581 45.8797 43.5188 45.75V25.1261H40.0706V37.5748ZM95.5405 45.0862C96.6916 45.1743 97.8409 45.2688 98.9891 45.3709V25.1261H95.5405V45.0862Z" fill="#1B313B"/>
</g>
</svg>

<svg width="147" height="73" fill="none" xmlns="http://www.w3.org/2000/svg"><path d="M86.784 25.124h-3.448v19.284c3.133.108 6.254.266 9.362.474v-3.398a294.94 294.94 0 00-5.914-.334V25.124zm27.403.002h-3.788l-2.497 5.787-2.243-5.787h-3.731l4.01 10.34-4.377 10.145c1.211.118 2.418.244 3.624.377l2.546-5.898 2.52 6.502c1.313.169 2.623.345 3.93.532l.006-.003-4.492-11.584 4.492-10.41zM71.499 44.24h3.449v-7.845h4.674v-3.398h-4.674v-4.443h6.178v-3.428h-9.627V44.24zM58.623 28.554h3.609v15.888c1.147-.043 2.297-.08 3.448-.11V28.555h3.609v-3.428H58.623v3.428zM46.835 45.43c3.178-.288 6.37-.526 9.578-.711V41.32c-2.05.118-4.093.259-6.13.419v-5.144c1.337-.013 3.097-.054 4.656-.035v-3.398a385.22 385.22 0 00-4.656.036v-4.644h6.13v-3.428h-9.578V45.43zm-6.764-7.854l-4.491-12.45h-3.277v21.998c1.147-.163 2.296-.32 3.448-.47V34.692l3.993 11.471c1.256-.145 2.514-.283 3.775-.413V25.126H40.07v12.449zm55.47 7.511c1.15.088 2.3.183 3.448.285V25.126H95.54v19.96z" fill="#1B313B"/></svg>
